data/styles/clear/style-clear/symbols/mobile_phone-m.svg

<svg height="24" viewBox="0 0 24 24" width="24"><g fill="none" fill-rule="evenodd"><circle cx="12" cy="12" fill="#fff" opacity=".6" r="12"/><circle cx="12" cy="12" fill="#8c5f93" r="11"/><path d="m15.1111111 5c-.4915555 0-.8888889.41813333-.8888889.93333333v.93333334h-4.44444442c-.98133334 0-1.77777778.83626666-1.77777778 1.86666666v8.39999997c0 1.0304.79644444 1.8666667 1.77777778 1.8666667h4.44444442c.9813334 0 1.7777778-.8362667 1.7777778-1.8666667v-11.19999997c0-.5152-.3973333-.93333333-.8888889-.93333333zm-3.5555555 12.1333333h-1.77777782v-.9333333h1.77777782zm0-1.8666666h-1.77777782v-.9333334h1.77777782zm2.6666666 1.8666666h-1.7777778v-.9333333h1.7777778zm0-1.8666666h-1.7777778v-.9333334h1.7777778zm0-2.8h-4.44444442v-3.73333337h4.44444442z" fill="#fff"/></g></svg>

<svg width="24" height="24" viewBox="0 0 24 24">
  <g fill="none" fill-rule="evenodd">
    <circle cx="12" cy="12" r="12" fill="#FFF" opacity=".6"/>
    <circle cx="12" cy="12" r="11" fill="#8C5F93"/>
    <path fill="#FFF" d="M15.1111111,5 C14.6195556,5 14.2222222,5.41813333 14.2222222,5.93333333 L14.2222222,6.86666667 L9.77777778,6.86666667 C8.79644444,6.86666667 8,7.70293333 8,8.73333333 L8,17.1333333 C8,18.1637333 8.79644444,19 9.77777778,19 L14.2222222,19 C15.2035556,19 16,18.1637333 16,17.1333333 L16,5.93333333 C16,5.41813333 15.6026667,5 15.1111111,5 L15.1111111,5 Z M11.5555556,17.1333333 L9.77777778,17.1333333 L9.77777778,16.2 L11.5555556,16.2 L11.5555556,17.1333333 L11.5555556,17.1333333 Z M11.5555556,15.2666667 L9.77777778,15.2666667 L9.77777778,14.3333333 L11.5555556,14.3333333 L11.5555556,15.2666667 L11.5555556,15.2666667 Z M14.2222222,17.1333333 L12.4444444,17.1333333 L12.4444444,16.2 L14.2222222,16.2 L14.2222222,17.1333333 L14.2222222,17.1333333 Z M14.2222222,15.2666667 L12.4444444,15.2666667 L12.4444444,14.3333333 L14.2222222,14.3333333 L14.2222222,15.2666667 L14.2222222,15.2666667 Z M14.2222222,12.4666667 L9.77777778,12.4666667 L9.77777778,8.73333333 L14.2222222,8.73333333 L14.2222222,12.4666667 L14.2222222,12.4666667 Z"/>
  </g>
</svg>
